fs/globe_video_48_filled.svg

<svg viewBox="0 0 48 48" fill="none" xmlns="http://www.w3.org/2000/svg" height="1em" width="1em">
  <path d="M23 41.0667C23 42.112 23.5346 43.0324 24.3454 43.5695C24.8197 43.8837 25.3885 44.0667 26 44.0667H36.1333C37.7902 44.0667 39.1333 42.7235 39.1333 41.0667V40.2L42.6845 42.5002C43.6825 43.1466 45 42.4303 45 41.2412V27.7588C45 26.6371 43.8278 25.9361 42.8571 26.4028C42.7988 26.4308 42.7411 26.4631 42.6845 26.4998L39.1333 28.8V28C39.1333 26.9561 38.6001 26.0367 37.7912 25.4993C37.3162 25.1838 36.7462 25 36.1333 25H26C24.4467 25 23.1691 26.1805 23.0155 27.6933C23.0052 27.7941 23 27.8965 23 28V41.0667ZM19.5 41.0667V32.5H16.2817C16.7533 34.9367 17.417 37.1026 18.2135 38.8946C18.6254 39.8215 19.0605 40.6205 19.5039 41.2931C19.5013 41.2179 19.5 41.1424 19.5 41.0667ZM26 21.5H30.4358C30.3827 20.4722 30.2973 19.4705 30.1827 18.5H15.8173C15.6115 20.2426 15.5 22.0859 15.5 24C15.5 26.0982 15.634 28.1113 15.8793 30H19.5V28C19.5 24.4102 22.4101 21.5 26 21.5ZM40.8448 23.522C41.5237 23.0956 42.2451 22.8562 42.9633 22.7787C42.8745 21.3036 42.6257 19.8717 42.2342 18.5H32.6991C32.8081 19.4762 32.8887 20.4778 32.939 21.5H36.1333C37.9876 21.5 39.6606 22.2765 40.8448 23.522ZM17.8869 43.3404C12.1251 41.8212 7.3808 37.7955 4.8909 32.5H13.7382C14.5634 37.0472 16.0308 40.8509 17.8869 43.3404ZM3.9156 30H13.3595C13.1252 28.0898 13 26.0778 13 24C13 22.1027 13.1044 20.2602 13.3009 18.5H3.76576C3.26703 20.2474 3 22.0925 3 24C3 26.0904 3.32071 28.1059 3.9156 30ZM4.66418 16H13.6506C14.457 11.2317 15.9632 7.23977 17.8869 4.65956C11.945 6.22624 7.08536 10.4585 4.66418 16ZM23 4C22.4327 4 21.7041 4.24825 20.831 5.07915C19.945 5.92231 19.0334 7.26054 18.2135 9.10544C17.363 11.019 16.6638 13.3591 16.1883 16H29.8117C29.3362 13.3591 28.637 11.019 27.7865 9.10544C26.9666 7.26054 26.055 5.92231 25.169 5.07915C24.2959 4.24825 23.5673 4 23 4ZM28.1131 4.65956C34.055 6.22624 38.9146 10.4585 41.3358 16H32.3494C31.543 11.2317 30.0368 7.23977 28.1131 4.65956Z" fill="#212121"/>
</svg>

<svg viewBox="0 0 48 48" fill="none" xmlns="http://www.w3.org/2000/svg" height="1em" width="1em">
  <path d="M23 41.067a2.997 2.997 0 0 0 3 3h10.133a3 3 0 0 0 3-3V40.2l3.551 2.3c.998.647 2.316-.07 2.316-1.259V27.76c0-1.122-1.172-1.823-2.143-1.356-.058.028-.116.06-.172.097l-3.552 2.3V28a2.997 2.997 0 0 0-3-3H26a3 3 0 0 0-3 3v13.067Zm-3.5 0V32.5h-3.218c.471 2.437 1.135 4.603 1.931 6.395.412.926.848 1.725 1.29 2.398a6.553 6.553 0 0 1-.003-.226ZM26 21.5h4.436a45.714 45.714 0 0 0-.253-3H15.817A47 47 0 0 0 15.5 24c0 2.098.134 4.111.38 6h3.62v-2a6.5 6.5 0 0 1 6.5-6.5Zm14.845 2.022a4.97 4.97 0 0 1 2.118-.743 19.944 19.944 0 0 0-.729-4.279H32.7c.11.976.19 1.978.24 3h3.194a6.48 6.48 0 0 1 4.712 2.022ZM17.887 43.34C12.125 41.821 7.38 37.795 4.89 32.5h8.847c.825 4.547 2.293 8.35 4.149 10.84ZM3.916 30h9.444a49.404 49.404 0 0 1-.36-6c0-1.897.104-3.74.3-5.5H3.767A20.012 20.012 0 0 0 3 24c0 2.09.32 4.106.916 6Zm.748-14h8.987c.806-4.768 2.312-8.76 4.236-11.34C11.945 6.226 7.085 10.459 4.664 16ZM23 4c-.567 0-1.296.248-2.169 1.08-.886.842-1.798 2.18-2.617 4.025-.851 1.914-1.55 4.254-2.026 6.895h13.624c-.476-2.64-1.175-4.981-2.026-6.895-.82-1.844-1.731-3.183-2.617-4.026C24.296 4.25 23.567 4 23 4Zm5.113.66C34.055 6.226 38.915 10.459 41.336 16h-8.987c-.806-4.768-2.312-8.76-4.236-11.34Z" fill="#212121"/>
</svg>
